www/assets/icons/format_align_justify.svg

<svg xmlns="http://www.w3.org/2000/svg" width="24" height="24" viewBox="0 0 24 24" fill='currentColor'><path d="M3 21h18v-2H3zm0-4h18v-2H3zm0-4h18v-2H3zm0-4h18V7H3zm0-6v2h18V3z"/></svg>

<svg width="24" height="24" viewBox="0 0 24 24" xmlns="http://www.w3.org/2000/svg" fill='currentColor'><path d="M3 21H21V19H3V21ZM3 17H21V15H3V17ZM3 13H21V11H3V13ZM3 9H21V7H3V9ZM3 3V5H21V3H3Z"/></svg>
